T: Irish Washerwoman, The
M: 6/8
L: 1/8
K: Dmaj
|:FDD ADD|FDF AGF|GEE BEE|GEG BAG|
FDD ADD|FDF AGF|GFG EAG|FDD D3:|
|:dAd dAd|dAd fed|cAc cAc|cAc edc|
Bdd Add| Gdd F2F|GFG EAG|1FDD D2A:|2FDD D2E||
|:FDD A3|FDF AGF|GEE B3|G3 BAG|
FDD A3|FDF AGF|G3 EAG|FDD D3:|
|:d3 dAd|dAd fed|c3 cAc|cAc edc|
B2d A2d| GFd F2F|GFG EAG|1FDD D2A:|2FDD D2E||
